X: 1
T: Paper-Cut Plant, The
M: 4/4
L: 1/8
R: reel
K: Amin
|:EABc AB ~B2|EABc Bdde|EABc AB ~B2|EF ~F2 DE ~E2:|
c3 A BBBd|dccA BE ~E2|c2 cA BBBd|cAAA GABA|
c2 cA BBBd|dccA BE ~E2|c2 cA BBBd|EF ~F2 DE~E2|
